X: 1
T: Oya's
R: reel
M: 4/4
L: 1/8
K: Edor
|:B2AF E2EE|D~E3 BEGA|B2AF EEGE|FDFA dBAF|
B2AF E2EE|D~E3 BEGE|FDFA defe|dBAF DEFA:|
|:B2eg f~g3|fgag egba|fdec AddA|defb afed|
B2eg fded|~B3c dBAG|FDFA defe|dBAF DEFA:|

